svgs/1F485.svg

<svg xmlns="http://www.w3.org/2000/svg" xmlns:xlink="http://www.w3.org/1999/xlink" preserveAspectRatio="none" viewBox="0 0 72 72"><defs><g id="a"><path fill="#FAC036" d="M45.65 45.65q-.8-2.8-3.3-4.2-2.55-1.4-5.35-.55-1.5.35-2.5 1.25-.05 0-.15.1l.35-.45.2-.45q1.05-2.05.85-4.15-.1-.6-.25-1.2-.8-2.85-3.3-4.25-2.55-1.4-5.35-.55-2.8.75-4.2 3.3l-1.4 2.45q.443-1.774-.1-3.65-.8-2.8-3.3-4.2-2.55-1.4-5.35-.6-2.8.8-4.2 3.35l-3.2 5.7-.4.6-4.7 8.4v25.5l48.85.1 2.95-5.3q1.4-2.55.6-5.35-.8-2.8-3.3-4.2l-.6-.3q-2.25-1.05-4.75-.3-1.2.3-2.2 1l-.5.4L45 51.05q1.4-2.55.65-5.4z"/><path fill="#F48120" d="M52.25 18.65q.75.6 2 1.35 1.2.65 2.2.95.95.35 1.1.1l5.1-9.05-6.05-3.15-4.95 8.85q-.15.25.6.95M72 9.4V0H53.6L51 5.05l18.25 9.55L72 9.4z"/><path fill="#2F2F2F" d="M72 11.05V9.4l-2.75 5.2L51 5.05 53.6 0h-.85L50.1 5.05q-.1.1 0 .25.05.2.2.25l6.3 3.3L62.65 12l6.6 3.45q.1.1.25.05.2-.1.25-.2L72 11.05z"/></g><path id="c" fill="#2F2F2F" d="M55.45 36.45q-.7-2.25-2.05-3.6-1.9-1.6-3.9-1.1-2.15.55-3.85 4.5-1.75 3.9-3.1 5.55 0 .05-1.5 2.5-.75 1.25-2 1.3.9.45 2 .55 1 .15 1.9.55 1.2.65 1.95.9 1.8.5 3.2.05 1.3-.4 2.7-1.8 3-3 4.4-6.15.5-1.1.55-1.7.05-.55-.3-1.55z"/><path id="d" fill="#D7598B" d="M29.2 68.45q.2.35.6.95.9 1 2.4 1.9.363.22.7.4.363.168.7.3h2.8l3.35-5.65q2.3-3.9 2.7-6 .35-2.45-1.65-3.65-2-1.2-4.05.4-1.6 1.3-3.9 5.2l-3.65 6.15z"/><path id="e" fill="#D7598B" d="M81.35 68.75q4.45.5 6.4-3.15 1.95-3.7-1.05-7.1-2.45-2.8-9.5-6.6l-11.3-5.95q-.6.3-1.55 1.1-1.8 1.7-3.25 4.4-1.35 2.6-1.75 5.1-.2 1.25-.1 1.95l11.25 6q7.1 3.75 10.85 4.25z"/><path id="f" fill="#D7598B" d="M81.35 68.75q4.45.5 6.4-3.15 1.95-3.7-1.05-7.1-2.45-2.8-9.5-6.6l-11.3-5.95q-.6.3-1.55 1.1-1.8 1.7-3.25 4.4-1.35 2.6-1.75 5.1-.2 1.25-.1 1.95l11.25 6q7.1 3.75 10.85 4.25z"/><path id="g" fill="#D7598B" d="M81.35 68.75q4.45.5 6.4-3.15 1.95-3.7-1.05-7.1-2.45-2.8-9.5-6.6l-11.3-5.95q-.6.3-1.55 1.1-1.8 1.7-3.25 4.4-1.35 2.6-1.75 5.1-.2 1.25-.1 1.95l11.25 6q7.1 3.75 10.85 4.25z"/><path id="h" fill="#D7598B" d="M46.45 48.15q1 0 2.15-.4 2.35-.9 4.5-3.75 2-2.7 1.75-4.1-.05.4-1.7 2.25-.2.15-2.75 2.8.55-.6 1.25-3.4.65-2.8.55-4-1.55 4-4.7 6.7 3.15-6 2-10.2-1.5 4.1-4.65 6.8 1.7-1.9 1.75-4.6-2.05 4.85-7.25 8.3-.35.25-1.35.25-.95.05-1.5-.1.4.5 2.1 1.2.9.4 2.45 1.05 2.25 1.1 5.4 1.2z"/><path id="b" fill="none" stroke="#E48C15" stroke-linecap="round" stroke-linejoin="round" stroke-width="1" d="M34.7 41.8l-.2.35"/><path id="i" fill="none" stroke="#E48C15" stroke-linecap="round" stroke-linejoin="round" stroke-width="1" d="M41.574 57.692l-8.162 13.677m1.053-29.236L17.153 71.114M21.202 37L4.336 66.778"/></defs><g><use xlink:href="#a"/><use xlink:href="#b"/></g><use transform="matrix(.78824 0 0 .78824 13.05 -6.95)" xlink:href="#c"/><use transform="matrix(1.27528 0 0 1.27528 0 -19.75)" xlink:href="#d"/><use transform="matrix(.0319 -.71648 .71648 .0319 -4.55 97.3)" xlink:href="#e"/><use transform="matrix(.0319 -.71648 .71648 .0319 -14.7 87.65)" xlink:href="#f"/><use transform="matrix(.0319 -.71648 .71648 .0319 -29.05 84.95)" xlink:href="#g"/><use transform="matrix(.78824 0 0 .78824 13.05 -6.95)" xlink:href="#h"/><use transform="matrix(1 0 0 1 0 -.047)" xlink:href="#i"/></svg>

<svg xmlns="http://www.w3.org/2000/svg" version="1.1" xmlns:xlink="http://www.w3.org/1999/xlink" preserveAspectRatio="none" x="0px" y="0px" width="72px" height="72px" viewBox="0 0 72 72">
<defs>
<g id="Layer1_0_FILL">
<path fill="#FAC036" stroke="none" d="
M 45.65 45.65
Q 44.85 42.85 42.35 41.45 39.8 40.05 37 40.9 35.5 41.25 34.5 42.15 34.45 42.15 34.35 42.25
L 34.7 41.8 34.9 41.35
Q 35.95 39.3 35.75 37.2 35.65 36.6 35.5 36 34.7 33.15 32.2 31.75 29.65 30.35 26.85 31.2 24.05 31.95 22.65 34.5
L 21.25 36.95
Q 21.69296875 35.1755859375 21.15 33.3 20.35 30.5 17.85 29.1 15.3 27.7 12.5 28.5 9.7 29.3 8.3 31.85
L 5.1 37.55
Q 4.9 37.85 4.7 38.15
L 0 46.55 0 72.05 48.85 72.15 51.8 66.85
Q 53.2 64.3 52.4 61.5 51.6 58.7 49.1 57.3 48.8 57.15 48.5 57 46.25 55.95 43.75 56.7 42.55 57 41.55 57.7 41.3 57.9 41.05 58.1
L 45 51.05
Q 46.4 48.5 45.65 45.65 Z"/>

<path fill="#F48120" stroke="none" d="
M 52.25 18.65
Q 53 19.25 54.25 20 55.45 20.65 56.45 20.95 57.4 21.3 57.55 21.05
L 62.65 12 56.6 8.85 51.65 17.7
Q 51.5 17.95 52.25 18.65
M 72 9.4
L 72 0 53.6 0 51 5.05 69.25 14.6 72 9.4 Z"/>

<path fill="#2F2F2F" stroke="none" d="
M 72 11.05
L 72 9.4 69.25 14.6 51 5.05 53.6 0 52.75 0 50.1 5.05
Q 50 5.15 50.1 5.3 50.15 5.5 50.3 5.55
L 56.6 8.85 62.65 12 69.25 15.45
Q 69.35 15.55 69.5 15.5 69.7 15.4 69.75 15.3
L 72 11.05 Z"/>
</g>

<g id="Layer1_0_MEMBER_0_FILL">
<path fill="#2F2F2F" stroke="none" d="
M 55.45 36.45
Q 54.75 34.2 53.4 32.85 51.5 31.25 49.5 31.75 47.35 32.3 45.65 36.25 43.9 40.15 42.55 41.8 42.55 41.85 41.05 44.3 40.3 45.55 39.05 45.6 39.95 46.05 41.05 46.15 42.05 46.3 42.95 46.7 44.15 47.35 44.9 47.6 46.7 48.1 48.1 47.65 49.4 47.25 50.8 45.85 53.8 42.85 55.2 39.7 55.7 38.6 55.75 38 55.8 37.45 55.45 36.45 Z"/>
</g>

<g id="Layer1_0_MEMBER_1_MEMBER_0_FILL">
<path fill="#D7598B" stroke="none" d="
M 29.2 68.45
Q 29.4 68.8 29.8 69.4 30.7 70.4 32.2 71.3 32.5626953125 71.5201171875 32.9 71.7 33.262890625 71.867578125 33.6 72
L 36.4 72 39.75 66.35
Q 42.05 62.45 42.45 60.35 42.8 57.9 40.8 56.7 38.8 55.5 36.75 57.1 35.15 58.4 32.85 62.3
L 29.2 68.45 Z"/>
</g>

<g id="Layer1_0_MEMBER_2_MEMBER_0_FILL">
<path fill="#D7598B" stroke="none" d="
M 81.35 68.75
Q 85.8 69.25 87.75 65.6 89.7 61.9 86.7 58.5 84.25 55.7 77.2 51.9
L 65.9 45.95
Q 65.3 46.25 64.35 47.05 62.55 48.75 61.1 51.45 59.75 54.05 59.35 56.55 59.15 57.8 59.25 58.5
L 70.5 64.5
Q 77.6 68.25 81.35 68.75 Z"/>
</g>

<g id="Layer1_0_MEMBER_3_MEMBER_0_FILL">
<path fill="#D7598B" stroke="none" d="
M 81.35 68.75
Q 85.8 69.25 87.75 65.6 89.7 61.9 86.7 58.5 84.25 55.7 77.2 51.9
L 65.9 45.95
Q 65.3 46.25 64.35 47.05 62.55 48.75 61.1 51.45 59.75 54.05 59.35 56.55 59.15 57.8 59.25 58.5
L 70.5 64.5
Q 77.6 68.25 81.35 68.75 Z"/>
</g>

<g id="Layer1_0_MEMBER_4_MEMBER_0_FILL">
<path fill="#D7598B" stroke="none" d="
M 81.35 68.75
Q 85.8 69.25 87.75 65.6 89.7 61.9 86.7 58.5 84.25 55.7 77.2 51.9
L 65.9 45.95
Q 65.3 46.25 64.35 47.05 62.55 48.75 61.1 51.45 59.75 54.05 59.35 56.55 59.15 57.8 59.25 58.5
L 70.5 64.5
Q 77.6 68.25 81.35 68.75 Z"/>
</g>

<g id="Layer1_0_MEMBER_5_FILL">
<path fill="#D7598B" stroke="none" d="
M 46.45 48.15
Q 47.45 48.15 48.6 47.75 50.95 46.85 53.1 44 55.1 41.3 54.85 39.9 54.8 40.3 53.15 42.15 52.95 42.3 50.4 44.95 50.95 44.35 51.65 41.55 52.3 38.75 52.2 37.55 50.65 41.55 47.5 44.25 50.65 38.25 49.5 34.05 48 38.15 44.85 40.85 46.55 38.95 46.6 36.25 44.55 41.1 39.35 44.55 39 44.8 38 44.8 37.05 44.85 36.5 44.7 36.9 45.2 38.6 45.9 39.5 46.3 41.05 46.95 43.3 48.05 46.45 48.15 Z"/>
</g>

<path id="Layer1_0_1_STROKES" stroke="#E48C15" stroke-width="1" stroke-linejoin="round" stroke-linecap="round" fill="none" d="
M 34.7 41.8
L 34.5 42.15"/>

<path id="Layer1_0_MEMBER_6_1_STROKES" stroke="#E48C15" stroke-width="1" stroke-linejoin="round" stroke-linecap="round" fill="none" d="
M 41.57425231933594 57.69160957336426
L 33.412435913085936 71.3690284729004
M 34.4645450592041 42.13314704895019
L 17.152567291259764 71.11397171020508
M 21.20159339904785 37.00012969970703
L 4.335964965820312 66.77800674438475"/>
</defs>

<g id="Layer_1">
<g transform="matrix( 1, 0, 0, 1, 0,0) ">
<use xlink:href="#Layer1_0_FILL"/>

<use xlink:href="#Layer1_0_1_STROKES"/>
</g>

<g transform="matrix( 0.788238525390625, 0, 0, 0.788238525390625, 13.05,-6.95) ">
<use xlink:href="#Layer1_0_MEMBER_0_FILL"/>
</g>

<g transform="matrix( 1.2752838134765625, 0, 0, 1.2752838134765625, 0,-19.75) ">
<use xlink:href="#Layer1_0_MEMBER_1_MEMBER_0_FILL"/>
</g>

<g transform="matrix( 0.031890869140625, -0.7164764404296875, 0.7164764404296875, 0.031890869140625, -4.55,97.3) ">
<use xlink:href="#Layer1_0_MEMBER_2_MEMBER_0_FILL"/>
</g>

<g transform="matrix( 0.031890869140625, -0.7164764404296875, 0.7164764404296875, 0.031890869140625, -14.7,87.65) ">
<use xlink:href="#Layer1_0_MEMBER_3_MEMBER_0_FILL"/>
</g>

<g transform="matrix( 0.031890869140625, -0.7164764404296875, 0.7164764404296875, 0.031890869140625, -29.05,84.95) ">
<use xlink:href="#Layer1_0_MEMBER_4_MEMBER_0_FILL"/>
</g>

<g transform="matrix( 0.788238525390625, 0, 0, 0.788238525390625, 13.05,-6.95) ">
<use xlink:href="#Layer1_0_MEMBER_5_FILL"/>
</g>

<g transform="matrix( 1.2752838134765625, 0, 0, 1.2752838134765625, 0,-19.75) ">
<use xlink:href="#Layer1_0_MEMBER_6_1_STROKES" transform="matrix( 0.7841339111328125, 0, 0, 0.7841339111328125, 0,15.45) "/>
</g>
</g>

<g id="Camada_2"/>
</svg>
